svg/user-check.svg

<svg fill="none" height="24" viewBox="0 0 24 24" width="24" xmlns="http://www.w3.org/2000/svg"><path d="m10 4c-2.20914 0-4 1.79086-4 4 0 2.2091 1.79086 4 4 4 2.2091 0 4-1.7909 4-4 0-2.20914-1.7909-4-4-4zm-6 4c0-3.31371 2.68629-6 6-6 3.3137 0 6 2.68629 6 6 0 3.3137-2.6863 6-6 6-3.31371 0-6-2.6863-6-6zm17.6644 3.2526c.4127.3669.4499.999.083 1.4118l-2.6667 3c-.1897.2135-.4617.3356-.7474.3356-.2856 0-.5576-.1221-.7474-.3356l-1.3333-1.5c-.3669-.4128-.3297-1.0449.083-1.4118.4128-.3669 1.0449-.3297 1.4118.083l.5859.6592 1.9193-2.1592c.3669-.4127.999-.4499 1.4118-.083zm-15.1644 6.7474c-1.25946 0-2.5 1.2135-2.5 3 0 .5523-.44772 1-1 1s-1-.4477-1-1c0-2.6318 1.89347-5 4.5-5h7c2.6065 0 4.5 2.3682 4.5 5 0 .5523-.4477 1-1 1s-1-.4477-1-1c0-1.7865-1.2405-3-2.5-3z" fill="#0d0d0d"/></svg>

<svg width="24" height="24" viewBox="0 0 24 24" fill="none" xmlns="http://www.w3.org/2000/svg">
<path d="M10 4C7.79086 4 6 5.79086 6 8C6 10.2091 7.79086 12 10 12C12.2091 12 14 10.2091 14 8C14 5.79086 12.2091 4 10 4ZM4 8C4 4.68629 6.68629 2 10 2C13.3137 2 16 4.68629 16 8C16 11.3137 13.3137 14 10 14C6.68629 14 4 11.3137 4 8ZM21.6644 11.2526C22.0771 11.6195 22.1143 12.2516 21.7474 12.6644L19.0807 15.6644C18.891 15.8779 18.619 16 18.3333 16C18.0477 16 17.7757 15.8779 17.5859 15.6644L16.2526 14.1644C15.8857 13.7516 15.9229 13.1195 16.3356 12.7526C16.7484 12.3857 17.3805 12.4229 17.7474 12.8356L18.3333 13.4948L20.2526 11.3356C20.6195 10.9229 21.2516 10.8857 21.6644 11.2526ZM6.5 18C5.24054 18 4 19.2135 4 21C4 21.5523 3.55228 22 3 22C2.44772 22 2 21.5523 2 21C2 18.3682 3.89347 16 6.5 16H13.5C16.1065 16 18 18.3682 18 21C18 21.5523 17.5523 22 17 22C16.4477 22 16 21.5523 16 21C16 19.2135 14.7595 18 13.5 18H6.5Z" fill="#0D0D0D"/>
</svg>
